src/resources/icons/watch-chess-tv.svg

<svg width="30" height="28" viewBox="0 0 30 28" fill="none" xmlns="http://www.w3.org/2000/svg">
<path d="M16.245 16.175C16.1078 15.9708 15.9225 15.8035 15.7053 15.6878C15.4882 15.5722 15.246 15.5116 15 15.5116C14.754 15.5116 14.5118 15.5722 14.2947 15.6878C14.0775 15.8035 13.8922 15.9708 13.755 16.175L7.755 25.175C7.62335 25.403 7.55404 25.6617 7.55404 25.925C7.55404 26.1883 7.62335 26.447 7.755 26.675C7.87238 26.9093 8.04909 27.1087 8.26752 27.2535C8.48596 27.3982 8.7385 27.4832 9 27.5H21C21.2714 27.4993 21.5374 27.425 21.7699 27.285C22.0023 27.145 22.1925 26.9445 22.32 26.705C22.4404 26.4704 22.4969 26.2083 22.4838 25.9449C22.4706 25.6816 22.3882 25.4264 22.245 25.205L16.245 16.175ZM11.805 24.5L15 19.7L18.195 24.5H11.805ZM25.5 0.5H4.5C3.30653 0.5 2.16193 0.974106 1.31802 1.81802C0.474106 2.66193 0 3.80653 0 5V18.5C0 19.6935 0.474106 20.8381 1.31802 21.682C2.16193 22.5259 3.30653 23 4.5 23H5.775C6.17282 23 6.55436 22.842 6.83566 22.5607C7.11697 22.2794 7.275 21.8978 7.275 21.5C7.275 21.1022 7.11697 20.7206 6.83566 20.4393C6.55436 20.158 6.17282 20 5.775 20H4.5C4.10218 20 3.72064 19.842 3.43934 19.5607C3.15804 19.2794 3 18.8978 3 18.5V5C3 4.60218 3.15804 4.22064 3.43934 3.93934C3.72064 3.65804 4.10218 3.5 4.5 3.5H25.5C25.8978 3.5 26.2794 3.65804 26.5607 3.93934C26.842 4.22064 27 4.60218 27 5V18.5C27 18.8978 26.842 19.2794 26.5607 19.5607C26.2794 19.842 25.8978 20 25.5 20H24.225C23.8272 20 23.4456 20.158 23.1643 20.4393C22.883 20.7206 22.725 21.1022 22.725 21.5C22.725 21.8978 22.883 22.2794 23.1643 22.5607C23.4456 22.842 23.8272 23 24.225 23H25.5C26.6935 23 27.8381 22.5259 28.682 21.682C29.5259 20.8381 30 19.6935 30 18.5V5C30 3.80653 29.5259 2.66193 28.682 1.81802C27.8381 0.974106 26.6935 0.5 25.5 0.5Z" fill="#824EC6"/>
</svg>

<svg id="a9939d02-7f74-4ebc-8851-4eca61989fc9" data-name="Layer 1" xmlns="http://www.w3.org/2000/svg" viewBox="0 0 30 27">
  <defs>
    <style>
      .b33a9f0d-ee46-436b-87ba-7a5ab3c9b3d6 {
        fill: #824ec6;
      }
    </style>
  </defs>
  <title>watch-chess-tv</title>
  <path class="b33a9f0d-ee46-436b-87ba-7a5ab3c9b3d6" d="M16.25,16.17a1.55,1.55,0,0,0-.54-.48,1.49,1.49,0,0,0-1.42,0,1.44,1.44,0,0,0-.53.48l-6,9a1.44,1.44,0,0,0-.21.75,1.39,1.39,0,0,0,.21.75,1.37,1.37,0,0,0,.51.58A1.49,1.49,0,0,0,9,27.5H21a1.5,1.5,0,0,0,.77-.22,1.53,1.53,0,0,0,.55-.58,1.41,1.41,0,0,0,.16-.76,1.53,1.53,0,0,0-.23-.74ZM11.81,24.5,15,19.7l3.19,4.8ZM25.5.5H4.5A4.51,4.51,0,0,0,0,5V18.5A4.51,4.51,0,0,0,4.5,23H5.78a1.53,1.53,0,0,0,1.06-.44,1.5,1.5,0,0,0,0-2.12A1.53,1.53,0,0,0,5.78,20H4.5A1.5,1.5,0,0,1,3,18.5V5A1.5,1.5,0,0,1,4.5,3.5h21A1.5,1.5,0,0,1,27,5V18.5A1.5,1.5,0,0,1,25.5,20H24.23a1.54,1.54,0,0,0-1.07.44,1.52,1.52,0,0,0,0,2.12,1.54,1.54,0,0,0,1.07.44H25.5A4.51,4.51,0,0,0,30,18.5V5A4.51,4.51,0,0,0,25.5.5Z" transform="translate(0 -0.5)"/>
</svg>
